!!!!SEGMENT: pl-gd--ee-2628--005-010_stabile-annibale--il-primo-libro-de-madrigali-a-cinque-voci-che-peggio-far-mi-puoi.krn
!!!cenid: 15xx:1055
!!!COM: Stabile, Annibale
!!!COM-rismID: pe30009662
!!!CDT: ~1535-1595/04
!!!CNT: Italian
!!!GTL: Il primo libro de madrigali a cinque voci
!!!OTL: Che peggio far mi puoi
!!!OMV: 010
!!!PDT: 1586
!!!AGN:
!!!SMS-siglum: PL-GD
!!!SMS-shelfmark: Ee 2628
!!!SMS-variant:
!!!SMS-altvar:
!!!SMS-shelfwork: 005-010 G
!!!NIFC-rismSourceID: 990060531
!!!NIFC-islandoraID: pl-gd:66139
!!!URL-pdf-islandora: https://repozytorium.nifc.pl/islandora/object/pl-gd%3A66139/datastream/PDF/view
!!!URL-scan: https://polish.musicsources.pl/pl/lokalizacje/galeria/klocki-introligatorskie/673 @EN{Scan on Polish Music Herritage in Open Access Website} @PL{Skany w portalu Dziedzictwo Muzyki Polskiej w otwartym dostępie}
!!!ONB-nifc: UWAGA: Canto: s. 78-89, Tenore: s. 233-245, Basso: s. 390-401, Quinto: s. 712-723. Dla głosu Alto proszę skorzystać z https://pbc.gda.pl/dlibra/doccontent?id=79410, str. 25-48. Uwaga: utwory podzielone wg spisu treści dostępnych na końcu ksiąg – proszę sprawdzać sąsiednie tytuły. Głos Quinto proszę umieszczać wg ambitusu (może się różnić w zależności od utworu).
!!!AIN: 1 alto 1 bass 2 soprn 1 tenor
!!!key: g:dor
**kern	**text	**kern	**text	**kern	**text	**kern	**text	**kern	**text
*part5	*part5	*part4	*part4	*part3	*part3	*part2	*part2	*part1	*part1
*staff5	*staff5	*staff4	*staff4	*staff3	*staff3	*staff2	*staff2	*staff1	*staff1
*I"BASSO	*	*I"TENORE	*	*I"ALTO	*	*I"QVINTO	*	*I"CANTO	*
*I'B	*	*I'T	*	*I'A	*	*I'V 5	*	*I'S	*
*Ibass	*	*Itenor	*	*Ialto	*	*Isoprn	*	*Isoprn	*
*ICvox	*	*ICvox	*	*ICvox	*	*ICvox	*	*ICvox	*
*clefF3	*	*clefC3	*	*clefC2	*	*clefG2	*	*clefG2	*
*k[b-]	*	*k[b-]	*	*k[b-]	*	*k[b-]	*	*k[b-]	*
*g:dor	*	*g:dor	*	*g:dor	*	*g:dor	*	*g:dor	*
*M4/4	*	*M4/4	*	*M4/4	*	*M4/4	*	*M4/4	*
*met(C)	*	*met(C)	*	*met(C)	*	*met(C)	*	*met(C)	*
=1-	=1-	=1-	=1-	=1-	=1-	=1-	=1-	=1-	=1-
0r	.	2r	.	2r	.	1dd	CHe	00r	.
.	.	2B-/	CHe	2b-\	CHe	.	.	.	.
=2-	=2-	=2-	=2-	=2-	=2-	=2-	=2-	=2-	=2-
.	.	2.F/	peg-	2.a\	peg-	2.cc\	peg-	.	.
.	.	4G/	-gio	4g\	-gio	4b-/	-gio	.	.
=3-	=3-	=3-	=3-	=3-	=3-	=3-	=3-	=3-	=3-
1r	.	4d\	far	4f#X\	far	4a/	far	.	.
.	.	4e-X\	mi	4g\	mi	4g/	mi	.	.
.	.	2d\	pu-	2f#X\	pu-	2a/	pu-	.	.
=4-	=4-	=4-	=4-	=4-	=4-	=4-	=4-	=4-	=4-
2r	.	2G/	-oi	2g\	-oi	2b-/	-oi	.	.
*	*	*	*ij	*	*ij	*	*ij	*	*
2B-\	Che	2d\	Che	2fny\	Che	2b-/	Che	.	.
=5-	=5-	=5-	=5-	=5-	=5-	=5-	=5-	=5-	=5-
2.F/	peg-	2.c/	peg-	2.f\	peg-	2.a/	peg-	0r	.
4G\	-gio	4B-/	-gio	4d/	-gio	4g/	-gio	.	.
!	!	!	!	!LO:SIC:v:t=custos d	!	!	!	!	!
!	!	!	!	!LO:LB:g=original	!	!	!	!	!
=6-	=6-	=6-	=6-	=6-	=6-	=6-	=6-	=6-	=6-
4D/	far	4A/	far	4d/	far	4f#X/	far	.	.
4E-X/	mi	4G/	mi	4c/	mi	4g/	mi	.	.
!	!	!LO:SIC:v:t=custos A	!	!	!	!LO:SIC:v:t=custos f#	!	!	!
!	!	!LO:LB:g=original	!	!	!	!LO:LB:g=original	!	!	!
2D/	pu-	2A/	pu-	2d/	pu-	2f#X/	pu-	.	.
=7-	=7-	=7-	=7-	=7-	=7-	=7-	=7-	=7-	=7-
2G\	-oi	2G/	-oi	2d/	-oi	2g/	-oi	2r	.
*	*	*	*Xij	*	*Xij	*	*Xij	*	*
2r	.	2B-/	Che	4r	.	2dd\	Che	2ff\	CHe
.	.	.	.	4b-\	Che	.	.	.	.
=8-	=8-	=8-	=8-	=8-	=8-	=8-	=8-	=8-	=8-
1r	.	2.F/	peg-	2.a\	peg-	2.cc\	peg-	2.ff\	peg-
.	.	4G/	-gio	4g\	-gio	4b-/	-gio	4dd\	-gio
=9-	=9-	=9-	=9-	=9-	=9-	=9-	=9-	=9-	=9-
2r	.	4d\	far	4f#X\	far	4a/	far	4dd\	far
.	.	4e-X\	mi	4g\	mi	4g/	mi	4cc\	mi
2D/	Cru	2.d\	pu-	2f#X\	pu-	2a/	pu-	2dd\	pu-
!LO:SIC:v:t=custos G	!	!	!	!	!	!	!	!	!
!LO:LB:g=original	!	!	!	!	!	!	!	!	!
=10-	=10-	=10-	=10-	=10-	=10-	=10-	=10-	=10-	=10-
!	!	!	!	!	!	!LO:N:acc=#	!	!	!
2G\	del	.	.	1g	-ci	2bn/	-oi	2dd\	-oi
.	.	4G/	-oi	.	.	.	.	.	.
2Eny/	la	4r	.	.	.	2cc\	cru-	2g/	Cru-
.	.	4G/	Cru-	.	.	.	.	.	.
=11-	=11-	=11-	=11-	=11-	=11-	=11-	=11-	=11-	=11-
4F#X/	che	4d\	-del	4r	.	2dd\	-del	4a/	-del
!	!	!LO:N:acc=#	!	!	!	!	!	!	!
4G\	mia	4Bn/	da	4d/	Cru-	.	.	4g/	da
!	!	!LO:SIC:v:t=custos c	!	!LO:SIC:v:t=custos g	!	!	!	!LO:SIC:v:t=custos g	!
!	!	!LO:LB:g=original	!	!LO:LB:g=original	!	!	!	!LO:LB:g=original	!
2E/	vi-	4c/	che	4g\	-del	4r	.	4g/	che
.	.	4c/	mia	4e/	da	4g/	cru-	4g/	mia
!	!	!	!	!	!	!LO:SIC:v:t=custos dd	!	!	!
!	!	!	!	!	!	!LO:LB:g=original	!	!	!
=12-	=12-	=12-	=12-	=12-	=12-	=12-	=12-	=12-	=12-
2D/	-ta	1A	vi-	4f#X\	che	4dd\	-del	2a/	vi-
.	.	.	.	2g\	mia	4dd\	da	.	.
4r	.	.	.	.	.	4cc\	che	2a/	-ta
4D/	Cru-	.	.	4f#X\	vi-	4a/	mia	.	.
=13-	=13-	=13-	=13-	=13-	=13-	=13-	=13-	=13-	=13-
4d\	-del	2G/	-ta	4g\	-ta	2b-y/	vi-	4r	.
*	*	*	*	*	*ij	*	*	*	*
4B-\	da	.	.	4g\	Cru-	.	.	4dd\	Cru-
4c\	che	4r	.	4e\	-del	4a/	-ta	4ee\	-del
4d\	mia	4d\	da	4a\	da	4a/	da	4ff#X\	da
!LO:SIC:v:t=custos G	!	!	!	!	!	!	!	!	!
!LO:LB:g=original	!	!	!	!	!	!	!	!	!
=14-	=14-	=14-	=14-	=14-	=14-	=14-	=14-	=14-	=14-
2G\	vi-	4d\	che	4b-\	che	4dd\	che	4gg\	che
.	.	4d\	mia	4g\	mia	4b-/	mia	4dd\	mia
2D/	-ta	2d\	vi-	2a\	vi-	2dd\	vi-	2ffny\	vi-
=15-	=15-	=15-	=15-	=15-	=15-	=15-	=15-	=15-	=15-
2r	.	1A	-ta	2a\	-ta	2cc#X\	-ta	2ee\	-ta
*	*	*	*	*	*Xij	*	*	*	*
2A\	Sta	.	.	2e/	Sta	4r	.	2cc#X\	ſta
.	.	.	.	.	.	4a/	Sta	.	.
!	!	!	!	!	!	!	!	!LO:SIC:v:t=custos dd	!
!	!	!	!	!	!	!	!	!LO:LB:g=original	!
=16-	=16-	=16-	=16-	=16-	=16-	=16-	=16-	=16-	=16-
2F#X/	ſem-	1r	.	2d/	ſem-	2a/	ſem-	2dd\	ſem-
!	!	!	!	!	!	!	!	!LO:N:acc=#	!
2G\	-pr'in	.	.	2d/	-pr'in	2g/	-pr'in	2bn/	-pre in
=17-	=17-	=17-	=17-	=17-	=17-	=17-	=17-	=17-	=17-
1E	pian-	0r	.	1e	pian-	1g#X	pian-	1bny	pian-
=18-	=18-	=18-	=18-	=18-	=18-	=18-	=18-	=18-	=18-
1E	-to	.	.	1e	-to	1g#	-to	1bny	-to
=19-	=19-	=19-	=19-	=19-	=19-	=19-	=19-	=19-	=19-
00r	.	2r	.	2r	.	2r	.	2r	.
.	.	2.d\	et	2.fny\	et	2.a/	et	2.dd\	et
=20-	=20-	=20-	=20-	=20-	=20-	=20-	=20-	=20-	=20-
.	.	.	.	.	.	.	.	.	.
.	.	4A/	ai-	4e/	a-	4a/	ai-	4cc#X\	-ai-
!	!	!	!	!LO:SIC:v:t=custos f#	!	!	!	!	!
!	!	!	!	!LO:LB:g=original	!	!	!	!	!
.	.	2d\	-ta	2f#X\	-ita	2a/	-ta	2dd\	-ta
!	!	!	!	!	!	!LO:SIC:v:t=custos cc	!	!	!
!	!	!	!	!	!	!LO:LB:g=original	!	!	!
=21-	=21-	=21-	=21-	=21-	=21-	=21-	=21-	=21-	=21-
.	.	4c/	Por-	4g\	Por-	4ccny\	Por-	4ee\	Por-
.	.	4.f\	-ger	4.a\	-ger	4.cc\	-ger	4.ff\	.
.	.	8f\	tu	8a\	tu	8cc\	tu-	8ff\	ger
.	.	4f\	non	4a\	non	4cc\	-non	4ff\	tu
=22-	=22-	=22-	=22-	=22-	=22-	=22-	=22-	=22-	=22-
.	.	4g\	gli	4g\	gli	4b-/	gli	4dd\	non
.	.	4e-X\	vu-	4g\	vu-	4gny/	vu-	4ccny\	gli
!	!	!LO:SIC:v:t=custos d	!	!	!	!	!	!	!
!	!	!LO:LB:g=original	!	!	!	!	!	!	!
.	.	2d\	-oi	2f#X\	-oi	2a/	-oi	2dd\	vu-
=23-	=23-	=23-	=23-	=23-	=23-	=23-	=23-	=23-	=23-
!	!	!	!	!	!	!LO:N:acc=#	!	!	!
2r	.	2G/	Deh	2g\	Deh	2bn/	Deh	1dd	-oi
2G\	Deh	2d\	al-	2.g\	al-	2b/	al-	.	.
=24-	=24-	=24-	=24-	=24-	=24-	=24-	=24-	=24-	=24-
2C/	almen	4eny\	-men	.	.	2.cc\	-men	1r	.
.	.	4g\	i	2e/	-men	.	.	.	.
2c\	i	8g\	gior-	.	.	.	.	.	.
.	.	8f\	.	.	.	.	.	.	.
.	.	8e\	.	4c/	i	4g/	i	.	.
.	.	8d\	.	.	.	.	.	.	.
=25-	=25-	=25-	=25-	=25-	=25-	=25-	=25-	=25-	=25-
4A\	gior	4c\	.	4fny\	gior-	4a/	gior-	1r	.
4B-\	ni	4d\	-ni	4d/	-ni	4g/	-ni	.	.
2A\	ſuoi	2c#X/	ſuoi	2e/	ſuoi	2a/	ſuoi	.	.
=26-	=26-	=26-	=26-	=26-	=26-	=26-	=26-	=26-	=26-
2D/	Dhe	2d\	Dhe	2f#X\	Dhe	2a/	Dhe	2r	.
2D/	al-	2.d\	al-	2f#\	al-	2a/	al-	2dd\	Deh
!	!	!	!	!	!	!	!	!LO:SIC:v:t=custos b	!
!	!	!	!	!	!	!	!	!LO:LB:g=original	!
=27-	=27-	=27-	=27-	=27-	=27-	=27-	=27-	=27-	=27-
!	!	!	!	!	!	!	!	!LO:N:acc=#	!
2G\	-men	.	.	2g\	-men	2d/	-men	2bn/	almen
.	.	2G/	-men	.	.	.	.	.	.
!LO:SIC:v:t=custos C	!	!	!	!LO:SIC:v:t=custos e	!	!	!	!	!
!LO:LB:g=original	!	!	!	!LO:LB:g=original	!	!	!	!	!
2C/	i	.	.	2e/	i	2g/	i	2ccny\	i
.	.	4cny/	i	.	.	.	.	.	.
=28-	=28-	=28-	=28-	=28-	=28-	=28-	=28-	=28-	=28-
2.Fny\	gior-	2c/	gior-	4fny\	gior-	2a/	gior-	4cc\	gior-
.	.	.	.	4f\	-ni	.	.	4a/	-ni
!	!	!	!	!	!	!LO:SIC:v:t=custos a	!	!	!
!	!	!	!	!	!	!LO:LB:g=original	!	!	!
.	.	2f\	-ni	2.a\	ſuo-	2a/	-ni	2.dd\	ſuo-
4G\	-ni	.	.	.	.	.	.	.	.
=29-	=29-	=29-	=29-	=29-	=29-	=29-	=29-	=29-	=29-
1A	ſu-	1e	ſu-	.	.	1a	ſu-	.	.
.	.	.	.	8g\	.	.	.	8cc#X\	.
!	!	!	!	!	!	!	!	!LO:N:acc=#	!
.	.	.	.	8f\	.	.	.	8bn\	.
.	.	.	.	2e\	.	.	.	2cc#X\	.
=30-	=30-	=30-	=30-	=30-	=30-	=30-	=30-	=30-	=30-
1D	-oi	1d	-oi	2f#X\	-i	1a	-oi	4dd\	-i
.	.	.	.	.	.	.	.	2dd\	Tron-
.	.	.	.	4r	.	.	.	.	.
.	.	.	.	2a\	Tron-	.	.	4a/	-caae
=31-	=31-	=31-	=31-	=31-	=31-	=31-	=31-	=31-	=31-
0r	.	1r	.	.	.	4r	.	2ff\	ſa-
.	.	.	.	4d/	-cae	4dd\	Tron-	.	.
.	.	.	.	2a\	ſa-	4ee\	-cae	4ccny\	-tia
.	.	.	.	.	.	4ff\	ſa-	4cc\	tua
!	!	!LO:SIC:v:t=custos d	!	!	!	!	!	!	!
!	!	!LO:LB:g=original	!	!	!	!	!	!	!
=32-	=32-	=32-	=32-	=32-	=32-	=32-	=32-	=32-	=32-
.	.	2r	.	4g\	-tia	4gg\	-tia	4.dd\	vo-
.	.	.	.	4g\	tue	4dd\	tua	.	.
.	.	.	.	.	.	.	.	16cc\	.
.	.	.	.	.	.	.	.	16b-y\	.
.	.	2.d\	Tron-	2f#X\	vog-	2dd\	vog-	2a/	.
!	!	!	!	!	!	!	!	!LO:SIC:v:t=custos b-	!
!	!	!	!	!	!	!	!	!LO:LB:g=original	!
=33-	=33-	=33-	=33-	=33-	=33-	=33-	=33-	=33-	=33-
2.G\	Tro-	.	.	2g\	-lis	1dd	-lia	4b-/	-glia
.	.	4G/	-cae	.	.	.	.	2b-/	Tron-
.	.	2d\	ſa-	4r	.	.	.	.	.
4D/	-cae	.	.	2a\	Tron-	.	.	4f/	-cae
=34-	=34-	=34-	=34-	=34-	=34-	=34-	=34-	=34-	=34-
2A\	ſa-	4.c/	-tia	.	.	2r	.	4e/	ſa-
.	.	.	.	4e/	-cae	.	.	2a/	-tia
.	.	8B-y/	.	.	.	.	.	.	.
!	!	!	!	!LO:SIC:v:t=custos a	!	!	!	!	!
!	!	!	!	!LO:LB:g=original	!	!	!	!	!
4F#X/	-tia	4A/	.	4a\	ſa-	4r	.	.	.
*	*	*	*	*	*	*	*ij	*	*
4G\	tua	4B-/	tua	2d/	-tia	2dd\	Tron-	4g/	tua
=35-	=35-	=35-	=35-	=35-	=35-	=35-	=35-	=35-	=35-
2D/	vog-	2A/	vog-	.	.	.	.	2f#X/	vog-
.	.	.	.	4d/	tua	4a/	-cae	.	.
2G\	-lia	4G/	-lia	4.d/	vo-	2b-y/	ſa-	2g/	-lia
.	.	2d\	Tron-	.	.	.	.	.	.
.	.	.	.	8e/	.	.	.	.	.
=36-	=36-	=36-	=36-	=36-	=36-	=36-	=36-	=36-	=36-
1r	.	.	.	4f#X\	.	4a/	-tia	4r	.
*	*	*	*	*	*	*	*	*	*ij
.	.	4G/	-cae	4.g\	.	4g/	tua	2dd\	Tron-
.	.	2d\	ſa-	.	.	2a/	vog-	.	.
.	.	.	.	8f#X\	.	.	.	.	.
.	.	.	.	4f#\	.	.	.	4a/	-cae
=37-	=37-	=37-	=37-	=37-	=37-	=37-	=37-	=37-	=37-
4r	.	8G/	-tia	2g\	-glia	4g/	-lia	4b-\	ſa-
*	*	*	*	*	*	*	*Xij	*	*
.	.	8A/	.	.	.	.	.	.	.
*	*ij	*	*	*	*	*	*	*	*
2G\	Tron-	8B-/	.	.	.	4gg\	Tron-	4dd\	-tia
.	.	8c\	.	.	.	.	.	.	.
.	.	8d\	.	2r	.	2dd\	-cae	4b-/	tu-
.	.	8e\	.	.	.	.	.	.	.
4D/	-cae	2f\	.	.	.	.	.	8a/	.
.	.	.	.	.	.	.	.	8g/	.
!	!	!	!	!	!	!LO:SIC:v:t=custos ff	!	!	!
!	!	!	!	!	!	!LO:LB:g=original	!	!	!
=38-	=38-	=38-	=38-	=38-	=38-	=38-	=38-	=38-	=38-
2d\	ſa-	.	.	1r	.	2ff\	ſa-	4a/	-a
.	.	8e\	.	.	.	.	.	2a/	vog-
.	.	8d\	.	.	.	.	.	.	.
!	!	!LO:SIC:v:t=custos e	!	!	!	!	!	!	!
!	!	!LO:LB:g=original	!	!	!	!	!	!	!
4c\	-tia	4e\	.	.	.	4ee\	-tia	.	.
4B-\	tua	4d\	tua	.	.	4gg\	tua	4g/	.
!LO:SIC:v:t=custos A	!	!	!	!	!	!	!	!	!
!LO:LB:g=original	!	!	!	!	!	!	!	!	!
=39-	=39-	=39-	=39-	=39-	=39-	=39-	=39-	=39-	=39-
00A	vog-	2c/	vog-	1r	.	2ee\	vog-	00a	-lia
*	*	*	*	*	*	*	*	*	*Xij
.	.	4A/	-lia	.	.	2cc\	-lia	.	.
.	.	4f\	Che	.	.	.	.	.	.
=40-	=40-	=40-	=40-	=40-	=40-	=40-	=40-	=40-	=40-
.	.	4e\	ben	4r	.	1r	.	.	.
.	.	4d\	mor	4fny\	Che	.	.	.	.
.	.	4c/	chi	4e/	ben	.	.	.	.
.	.	4f\	mo-	4d/	mor	.	.	.	.
=41-	=41-	=41-	=41-	=41-	=41-	=41-	=41-	=41-	=41-
.	.	4e\	-ren-	4c/	chi	0r	.	.	.
.	.	4d\	-do	4f\	mo-	.	.	.	.
.	.	4c/	eſ-	4e/	-ren-	.	.	.	.
.	.	4f\	-ce	4d/	-do'e	.	.	.	.
!	!	!	!	!LO:SIC:v:t=custos c	!	!	!	!	!
!	!	!	!	!LO:LB:g=original	!	!	!	!	!
=42-	=42-	=42-	=42-	=42-	=42-	=42-	=42-	=42-	=42-
.	.	4e\	di	4c/	ſue	.	.	.	.
.	.	4.d\	do-	4f\	di	.	.	.	.
.	.	.	.	2e/	dog-	.	.	.	.
.	.	8c#X\	.	.	.	.	.	.	.
.	.	4c#\	.	.	.	.	.	.	.
!	!	!	!	!	!	!	!	!LO:SIC:v:t=custos dd	!
!	!	!	!	!	!	!	!	!LO:LB:g=original	!
=43-	=43-	=43-	=43-	=43-	=43-	=43-	=43-	=43-	=43-
00D	-lia	2d\	-glia	00d	-lia	4r	.	0r	.
*	*Xij	*	*	*	*	*	*	*	*
.	.	.	.	.	.	4b-/	Che	.	.
.	.	4r	.	.	.	4a/	ben	.	.
.	.	4B-/	Che	.	.	4g/	mor	.	.
!	!	!LO:SIC:v:t=custos A	!	!	!	!	!	!	!
!	!	!LO:LB:g=original	!	!	!	!	!	!	!
=44-	=44-	=44-	=44-	=44-	=44-	=44-	=44-	=44-	=44-
.	.	4A/	ben	.	.	4fny/	chi	.	.
.	.	4G/	mor	.	.	4b-/	mo-	.	.
.	.	4F/	chi	.	.	4a/	-ren-	.	.
.	.	4B-/	mo-	.	.	4g/	-do	.	.
=45-	=45-	=45-	=45-	=45-	=45-	=45-	=45-	=45-	=45-
.	.	4A/	-ren-	.	.	4f/	eſ-	1r	.
.	.	4G/	-do	.	.	4b-/	-ce	.	.
.	.	4F/	eſce	.	.	4a/	di	.	.
.	.	4B-/	di	.	.	2g/	dog-	.	.
=46-	=46-	=46-	=46-	=46-	=46-	=46-	=46-	=46-	=46-
.	.	1A	dog-	.	.	.	.	2r	.
.	.	.	.	.	.	8f#X/	.	.	.
.	.	.	.	.	.	8e/	.	.	.
.	.	.	.	.	.	2f#X/	.	2dd\	Che
=47-	=47-	=47-	=47-	=47-	=47-	=47-	=47-	=47-	=47-
!	!	!	!	!	!	!	!	!LO:N:acc=#	!
2r	.	00G	-lia	2d/	Che	00g	-lia.	4.bn/	ben-
.	.	.	.	.	.	.	.	8cc\	.
!	!	!	!	!LO:N:acc=#	!	!	!	!	!
2G\	Che	.	.	4Bn/	ben	.	.	4dd\	.
.	.	.	.	4B/	mor	.	.	4dd\	.
=48-	=48-	=48-	=48-	=48-	=48-	=48-	=48-	=48-	=48-
4C/	ben	.	.	4c/	chi	.	.	4ee-X\	-mor
4C/	mor	.	.	4e-X/	mo-	.	.	4cc\	chi
!LO:N:acc=#	!	!	!	!	!	!	!	!	!
4BBn/	chi	.	.	4d/	-ren-	.	.	4dd\	moren-
4BB/	moren-	.	.	4d/	-do	.	.	4dd\	-do
=49-	=49-	=49-	=49-	=49-	=49-	=49-	=49-	=49-	=49-
4C/	-do	.	.	2e-X/	eſce	.	.	2cc\	eſce
4C/	eſ-	.	.	.	.	.	.	.	.
!	!	!	!	!	!	!	!	!LO:N:acc=#	!
4G\	-ce	.	.	2d/	di	.	.	2bn/	di
4G\	di	.	.	.	.	.	.	.	.
=50-	=50-	=50-	=50-	=50-	=50-	=50-	=50-	=50-	=50-
1C	dog-	.	.	1e-X	dog-	.	.	1cc	dog-
=51-	=51-	=51-	=51-	=51-	=51-	=51-	=51-	=51-	=51-
!	!	!	!	!	!	!	!	!LO:N:acc=#	!
00G	-lia.	00yy	.	00d	-lia	00yy	.	00bn	-lia.
=52-	=52-	=52-	=52-	=52-	=52-	=52-	=52-	=52-	=52-
.	.	.	.	.	.	.	.	.	.
=53-	=53-	=53-	=53-	=53-	=53-	=53-	=53-	=53-	=53-
.	.	.	.	.	.	.	.	.	.
=54-	=54-	=54-	=54-	=54-	=54-	=54-	=54-	=54-	=54-
.	.	.	.	.	.	.	.	.	.
=||	=||	=||	=||	=||	=||	=||	=||	=||	=||
*-	*-	*-	*-	*-	*-	*-	*-	*-	*-
!!!system-decoration: [(s1,s2,s3,s4,s5)]
!!!ENC: Marta Opryszak
!!!END: 2022-07-09
!!!ENC: Urszula Świątek
!!!END: 2022-07-29
